!!!!SEGMENT: pl-kk--kk-i-3--045_anonim--alleluia-prophetae-sancti.krn
!!!cenid: 15xx:655
!!!COM: Anonim
!!!COM-rismID: pe30004985
!!!CDT:
!!!CNT:
!!!OTL: Alleluia, Prophetae sancti
!!!PDT:
!!!AGN:
!!!SMS-siglum: PL-Kk
!!!SMS-shelfmark: Kk.I.3
!!!SMS-shelfwork: 045 W
!!!SMS-variant:
!!!SMS-altvar:
!!!NIFC-rismSourceID: 1001145493
!!!NIFC-islandoraID: pl-kk:1170
!!!URL-pdf-islandora: https://repozytorium.nifc.pl/islandora/object/pl-kk%3A1170/datastream/PDF/view
!!!URL-scan: https://polish.musicsources.pl/pl/lokalizacje/galeria/rekopisy/5919 @EN{Scan on Polish Music Herritage in Open Access Website} @PL{Skany w portalu Dziedzictwo Muzyki Polskiej w otwartym dostępie}
!!!ONB-nifc: UWAGA: Discantus (s. 127v-128r, skan 0130), Tenor (s. 96r-v, skan 0268-0269), Bassus (s. 122v-123v, skan 0426-0427)
!!!AIN: 1 alto 1 bass 1 tenor
!!!key: e:phr
**kern	**text	**kern	**text	**kern	**text
*part3	*part3	*part2	*part2	*part1	*part1
*staff3	*staff3	*staff2	*staff2	*staff1	*staff1
*I"Bassus	*	*I"Tenor	*	*I"Discantus	*
*I'B	*	*I'T	*	*I'A	*
*Ibass	*	*Itenor	*	*Ialto	*
*ICvox	*	*ICvox	*	*ICvox	*
*clefF4	*	*clefC4	*	*clefC3	*
*k[]	*	*k[]	*	*k[]	*
*e:phr	*	*e:phr	*	*e:phr	*
*M2/1	*	*M2/1	*	*M2/1	*
*met(C|)	*	*met(C|)	*	*met(C|)	*
=1-	=1-	=1-	=1-	=1-	=1-
*lig	*	*lig	*	*	*
1G	Al-	1C	Al-	1c	Al-
1F	.	1D	.	1A	-le-
*Xlig	*	*Xlig	*	*	*
=2-	=2-	=2-	=2-	=2-	=2-
*2\right	*	*lig	*	*	*
2D/	-le-	1D	-le-	2A/	.
2.F\	.	.	.	2.d/	.
.	.	1F	.	.	.
4E/	.	.	.	4e/	.
4D/	.	.	.	2.f/	.
4C/	.	.	.	.	.
*	*	*Xlig	*	*	*
=3-	=3-	=3-	=3-	=3-	=3-
*	*	*lig	*	*	*
1D	-lu-	1F	-lu-	.	.
.	.	.	.	4e/	.
.	.	.	.	1d	.
2.AA/	-ẏa	1E	.	.	.
*	*	*	*	*custos:d	*
.	.	.	.	2c/	-lu-
*custos:BB	*	*	*	*	*
4C/	.	.	.	.	.
*	*	*Xlig	*	*	*
!LO:PB:g=original	!	!	!	!LO:LB:g=original	!
=4-	=4-	=4-	=4-	=4-	=4-
*clefF3	*	*lig	*	*	*
1BB	.	1D	-ẏa	1d	-ẏa
*	*	*	*	*Xbrackettup	*
*	*	*	*	*col	*
!	!	!	!	!LO:TUP:b	!
1AA	.	1E	.	3c/	.
.	.	.	.	3d/	.
.	.	.	.	3e/	.
*	*	*Xlig	*	*	*
=5-	=5-	=5-	=5-	=5-	=5-
!	!	!	!	!LO:TUP:b	!
1A	.	1F	.	3d/	.
*	*	*	*	*2\right	*
.	.	.	.	3e\	.
.	.	.	.	3f\	.
*	*	*	*	*Xcol	*
1B	.	1G	.	2e\	.
.	.	.	.	2.g\	.
=6-	=6-	=6-	=6-	=6-	=6-
2.c\	.	1E	.	.	.
.	.	.	.	4f\	.
.	.	.	.	4e/	.
4B\	.	.	.	4d/	.
4A/	.	2F/	.	2c/	.
4G/	.	.	.	.	.
4F/	.	2D/	.	1f\	.
4E/	.	.	.	.	.
=7-	=7-	=7-	=7-	=7-	=7-
*	*	*custos:G	*	*	*
2D/	.	2F/	.	.	.
!	!	!LO:LB:g=original	!	!	!
2C/	.	2G/	.	4e/	.
.	.	.	.	4d/	.
2.F/	.	2.A/	.	4c/	.
*	*	*	*	*custos:A	*
.	.	.	.	4B/	.
!	!	!	!	!LO:LB:g=original	!
.	.	.	.	1A/	.
4E/	.	4G/	.	.	.
=8-	=8-	=8-	=8-	=8-	=8-
2D/	.	2F/	.	.	.
*custos:F	*	*	*	*	*
2C/	.	2E/	.	1c\	.
*clefF4	*	*	*	*	*
!LO:LB:g=original	!	!	!	!	!
1F	.	1D	.	.	.
.	.	.	.	2B/	.
=9-	=9-	=9-	=9-	=9-	=9-
1E	.	2.C/	.	4c/	.
.	.	.	.	4d/	.
.	.	.	.	4e/	.
.	.	4D/	.	4f\	.
2C/	.	2E/	.	2g\	.
*lig	*	*	*	*	*
1D\	.	2.F/	.	4f\	.
.	.	.	.	4e/	.
=10-	=10-	=10-	=10-	=10-	=10-
.	.	.	.	2d/	.
.	.	4G/	.	.	.
*col	*	*	*	*	*
2.AA/	.	2.A/	.	2c/	.
.	.	.	.	2f\	.
*Xlig	*	*	*	*	*
4BB/	.	4G/	.	.	.
*Xcol	*	*	*	*	*
2C/	.	2G/	.	1e\	.
=11-	=11-	=11-	=11-	=11-	=11-
1D	.	1F	.	.	.
.	.	.	.	2d/	.
*	*	*custos:F	*	*custos:c	*
2C/	.	[1El;	.	[1el;<	.
2AA/	.	.	.	.	.
=12-	=12-	=12-	=12-	=12-	=12-
0El;<	.	0E]	.	0e]	.
!	!	!LO:PB:g=original	!	!LO:LB:g=original	!
=13||	=13||	=13||	=13||	=13||	=13||
1F	Pro-	0r	.	1c	Pro-
*	*	*	*	*lig	*
2E/	-phe-	.	.	1c	phe-
*custos:D	*	*	*	*	*
2C/	.	.	.	.	.
!LO:LB:g=original	!	!	!	!	!
=14-	=14-	=14-	=14-	=14-	=14-
2D/	.	1r	.	1A	.
*lig	*	*	*	*	*
1F	.	.	.	.	.
*	*	*	*	*Xlig	*
*	*	*	*	*lig	*
.	.	1F	Pro-	1c	.
1.FF/	.	.	.	.	.
*Xlig	*	*	*	*	*
=15-	=15-	=15-	=15-	=15-	=15-
*	*	*lig	*	*	*
.	.	1F	-phe-	1A	.
*lig	*	*	*	*Xlig	*
1GG	-te	1D	.	1G	-te
*	*	*Xlig	*	*	*
=16-	=16-	=16-	=16-	=16-	=16-
*	*	*lig	*	*	*
1FF	.	1F	.	1A	san-
*Xlig	*	*	*	*	*
*lig	*	*	*	*	*
1GG	san-	1D	.	1B	-cti
*	*	*Xlig	*	*	*
=17-	=17-	=17-	=17-	=17-	=17-
1AA	.	1C	-te	1r	.
*Xlig	*	*	*	*	*
1GG	-cti	1D	san-	1B	pre-
=18-	=18-	=18-	=18-	=18-	=18-
1C	.	1E	-cti	1G	-di-
2BB/	.	0r	.	1B	-ca-
2.GG/	.	.	.	.	.
=19-	=19-	=19-	=19-	=19-	=19-
.	.	.	.	1d	-ve-
4AA/	.	.	.	.	.
2BB/	.	.	.	.	.
1AA	.	1E	pre-	0e	.
=20-	=20-	=20-	=20-	=20-	=20-
2r	.	1C	-di-	.	.
2AA/	pre-	.	.	.	.
*	*	*	*	*lig	*
2.C/	-di-	1E	-ca-	1c	.
*custos:GG	*	*	*	*	*
4BB/	.	.	.	.	.
!LO:LB:g=original	!	!	!	!	!
=21-	=21-	=21-	=21-	=21-	=21-
1.GG	-ca-	0G	-ve-	1d	.
*	*	*	*	*Xlig	*
*	*	*	*	*lig	*
.	.	.	.	1B	.
2GG/	-ve-	.	.	.	.
=22-	=22-	=22-	=22-	=22-	=22-
*	*	*	*	*custos:c	*
1D	-ru(n)t	1A	.	1A	.
*	*	*	*	*Xlig	*
*	*	*	*	*lig	*
!	!	!	!	!LO:LB:g=original	!
1r	.	0F	.	1c	-runt
=23-	=23-	=23-	=23-	=23-	=23-
1D	.	.	.	1A	.
*lig	*	*	*	*	*
*	*	*custos:E	*	*	*
!	!	!	!	!LO:TX:a:t=2	!
1.GG	.	1G	.	0G	.
*	*	*	*	*Xlig	*
!	!	!LO:LB:g=original	!	!	!
=24-	=24-	=24-	=24-	=24-	=24-
*	*	*lig	*	*	*
.	.	1E	.	.	.
1C	.	.	.	.	.
.	.	1D	.	2A/	na-
*Xlig	*	*	*	*	*
2BB/	.	.	.	2B/	-ſci
=25-	=25-	=25-	=25-	=25-	=25-
!	!	!LO:TX:a:t=2	!	!	!
2AA/	.	0F	.	2c/	.
2GG/	.	.	.	1d	.
1FF	.	.	.	.	.
.	.	.	.	1c\	.
*	*	*Xlig	*	*	*
=26-	=26-	=26-	=26-	=26-	=26-
*	*	*lig	*	*	*
1GG	.	1D	-runt	.	.
.	.	.	.	2B/	.
1AA	.	1C	.	1c	.
*	*	*Xlig	*	*	*
=27-	=27-	=27-	=27-	=27-	=27-
2GG/	.	2D/	.	2.B/	Sal-
2G\	na-	2E/	.	.	.
.	.	.	.	4c/	-va-
2F\	-ſci	2F/	.	2d/	.
*custos:C	*	*	*	*	*
2E/	.	1G/	nas-	1e\	.
!LO:LB:g=original	!	!	!	!	!
=28-	=28-	=28-	=28-	=28-	=28-
2C/	.	.	.	.	.
2D/	.	1F	-ci	2d/	.
*	*	*	*	*custos:A	*
1AA	.	.	.	1c	.
.	.	2E/	.	.	.
!	!	!	!	!LO:PB:g=original	!
=29-	=29-	=29-	=29-	=29-	=29-
1r	.	1F	.	1A	-to-
2r	.	2.E/	ſal-	1B	-rem
2E/	sal-	.	.	.	.
.	.	4F/	.	.	.
=30-	=30-	=30-	=30-	=30-	=30-
2C/	-va-	2G/	.	1r	.
2AA/	-to-	1A	.	.	.
*lig	*	*	*	*	*
1E	-rem	.	.	1B	de
.	.	2G/	va-	.	.
=31-	=31-	=31-	=31-	=31-	=31-
1D	.	1F	to-	1d	vir-
*Xlig	*	*	*	*	*
2C/	de	1E	-rem	1e	-gi-
2.AA/	vir-	.	.	.	.
=32-	=32-	=32-	=32-	=32-	=32-
*	*	*custos:E	*	*	*
*	*	*	*	*lig	*
.	.	1r	.	1e	-ne
4BB/	.	.	.	.	.
4C/	.	.	.	.	.
4D/	.	.	.	.	.
*	*	*	*	*col	*
!	!	!LO:LB:g=original	!	!	!
2.E/	.	1E	de	2.g\	.
*	*	*	*	*Xlig	*
4D/	.	.	.	4f/	.
*	*	*	*	*Xcol	*
=33-	=33-	=33-	=33-	=33-	=33-
*custos:BB	*	*	*	*	*
2C/	[gi]-	1G	vir-	2e/	.
!LO:PB:g=original	!	!	!	!	!
2BB/	.	.	.	2d/	.
1AA	-ne	1A	-gi-	1.c	.
=34-	=34-	=34-	=34-	=34-	=34-
*	*	*lig	*	*	*
2r	.	1A	-ne	.	.
2D/	.	.	.	2d/	.
*	*	*2\right	*	*	*
*	*	*col	*	*	*
2C/	.	2.c\	.	2.e/	.
4AA/	.	.	.	.	.
*	*	*Xlig	*	*	*
*	*	*	*	*custos:c	*
4BB/	.	4B/	.	4d/	.
*	*	*Xcol	*	*	*
!	!	!	!	!LO:LB:g=original	!
=35-	=35-	=35-	=35-	=35-	=35-
4C/	.	2A/	.	2c/	.
4D/	.	.	.	.	.
2E/	.	2G/	.	2B/	.
2F/	.	2F/	.	2A/	.
2E/	.	2G/	.	2B/	.
=36-	=36-	=36-	=36-	=36-	=36-
2AA/	.	2.A/	.	1c	.
1A	.	.	.	.	.
.	.	4G/	.	.	.
.	.	2F/	.	1B	.
2G\	.	1E/	.	.	.
=37-	=37-	=37-	=37-	=37-	=37-
*custos:E	*	*	*	*	*
1F	.	.	.	00r	.
.	.	2D/	.	.	.
!LO:LB:g=original	!	!	!	!	!
1E	.	1E	.	.	.
=38-	=38-	=38-	=38-	=38-	=38-
1r	.	1F	.	.	.
0r	.	2E/	.	.	.
*	*	*custos:D	*	*	*
.	.	1F/	.	.	.
=39-	=39-	=39-	=39-	=39-	=39-
.	.	.	.	0r	.
!	!	!LO:LB:g=original	!	!	!
.	.	2D/	.	.	.
1r	.	2F/	.	.	.
.	.	2G/	.	.	.
=40-	=40-	=40-	=40-	=40-	=40-
*lig	*	*	*	*	*
1AA	.	1A	.	2.c/	.
.	.	.	.	4d/	.
*col	*	*	*	*	*
2.C/	.	2G/	.	4e\	.
.	.	.	.	4f\	.
.	.	2E/	.	2g\	.
*Xlig	*	*	*	*	*
4BB/	.	.	.	.	.
*Xcol	*	*	*	*	*
=41-	=41-	=41-	=41-	=41-	=41-
*	*	*	*	*lig	*
2AA/	.	1F	.	1d	.
2FF/	.	.	.	.	.
*	*	*	*	*col	*
0C	.	1E	.	2.e\	.
*	*	*	*	*Xlig	*
.	.	.	.	4d/	.
*	*	*	*	*Xcol	*
=42-	=42-	=42-	=42-	=42-	=42-
*	*	*lig	*	*	*
*	*	*	*	*custos:B	*
.	.	1E	ma-	2c/	.
!	!	!	!	!LO:LB:g=original	!
.	.	.	.	2B/	.
*lig	*	*	*	*	*
1FF	ma-	1F	.	1A	.
*	*	*Xlig	*	*	*
=43-	=43-	=43-	=43-	=43-	=43-
1GG	.	1D	-tre	1r	.
*Xlig	*	*	*	*	*
1G	-tre	1C	.	1e	Ma-
=44-	=44-	=44-	=44-	=44-	=44-
*	*	*	*	*lig	*
2F\	.	0D	.	1f	.
2.D/	.	.	.	.	.
.	.	.	.	1d	.
4E/	.	.	.	.	.
4F\	.	.	.	.	.
*custos:A	*	*	*	*	*
4G\	.	.	.	.	.
*	*	*	*	*Xlig	*
!LO:LB:g=original	!	!	!	!	!
=45-	=45-	=45-	=45-	=45-	=45-
2.A\	san-	1F	san-	1c	.
4G\	.	.	.	.	.
*	*	*	*	*lig	*
4F/	.	2D/	.	1d	-tre
4E/	.	.	.	.	.
*lig	*	*	*	*	*
1D\	-cta	2.F/	.	.	.
=46-	=46-	=46-	=46-	=46-	=46-
.	.	.	.	1f	.
.	.	4E/	.	.	.
*col	*	*	*	*	*
2.F\	.	4D/	.	.	.
.	.	4C/	.	.	.
*	*	*	*	*Xlig	*
*	*	*	*	*lig	*
*	*	*custos:C	*	*	*
.	.	1D	.	1f	san-
*Xlig	*	*	*	*	*
4E/	.	.	.	.	.
*Xcol	*	*	*	*	*
4D/	.	.	.	.	.
8C/L	.	.	.	.	.
8D/J	.	.	.	.	.
!	!	!LO:LB:g=original	!	!	!
=47-	=47-	=47-	=47-	=47-	=47-
2E/	ma-	2C/	-cta	1e	.
2AA/	-ri	2.c\	.	.	.
*	*	*	*	*Xlig	*
*	*	*	*	*lig	*
1A	.	.	.	1c	-cta
.	.	4B/	Ma-	.	.
.	.	4A/	.	.	.
.	.	4G/	.	.	.
=48-	=48-	=48-	=48-	=48-	=48-
1D	.	1A	.	1d	.
*	*	*	*	*Xlig	*
2G\	.	1G	.	2.d/	Ma-
4F/	.	.	.	.	.
*custos:D	*	*	*	*	*
4E/	.	.	.	4e\	.
!LO:LB:g=original	!	!	!	!	!
=49-	=49-	=49-	=49-	=49-	=49-
2D/	.	2A/	.	2f\	.
2C/	.	2.c\	.	1e	.
1F	.	.	.	.	.
.	.	4B/	.	.	.
.	.	1A\	.	2d/	.
=50-	=50-	=50-	=50-	=50-	=50-
1E	.	.	.	00e	-ri-
.	.	2G/	.	.	.
*lig	*	*	*	*	*
1AA	.	2.A/	.	.	.
.	.	4G/	.	.	.
=51-	=51-	=51-	=51-	=51-	=51-
*custos:G	*	*	*	*	*
[0El;;	.	2E/	.	.	.
.	.	2A/	-ri-	.	.
*	*	*custos:C	*	*custos:c	*
.	.	[1Gl;;\	-a	.	.
*Xlig	*	*	*	*	*
=52-	=52-	=52-	=52-	=52-	=52-
0E]	.	0G]	.	0el;;	-a
==	==	==	==	==	==
*-	*-	*-	*-	*-	*-
!!!system-decoration: [(*)]
!!!RDF**kern: < = below
!!!RDF**kern: l = terminal long
!!!ENC: Filip Voros
!!!END: 2022-01-18
!!!ENC: Andrzej Kubiczek
!!!END: 2022-01-25
